icons/1_Primary/TotalEnergies.svg

<svg xmlns="http://www.w3.org/2000/svg" viewBox="0 0 1024 1024">
   <circle cx="512" cy="512" r="512" style="fill:red"/>
   <path d="M819.9 487.55c-12 38.77-51.34 57.45-103.55 63-74 8-238.88-14.67-296.33-20.43 8.21 38.42 15.54 77.36 18.86 93.95 4.19 20.78-9.08 33.53-26.54 34.92-12.4 1-22.88-6.46-26-17.46-1-3.32-17.11-53.08-23.4-71.77-10.48-30.73-18.16-46.8-59.55-54.13-23.05-4.19-38.24-4.54-66.71-6.64-20.08-1.4-36.67-19.38-36.67-41.39 0-25.84 23.22-53.43 56.93-48.37 58 8.56 132.54 23.57 199.24 35.8 14.89 2.71 32.77 5.77 52.27 8.81h-.11l7.27 1.12h.18l7.17 1.08.47.07 7.14 1 .6.09 7.17 1 .64.09 7.29 1 .53.07 7.49 1h.35l7.75 1 8 1c48.21 5.86 97.62 9.61 132.34 6.83 25.32-2.27 47.15-5.24 47.15-14.14 0-4.54-4.54-10.48-12-15.72-13.62-8.73-38.77-16.94-73.34-15.19-3.42.19-6.75.46-10 .8-35.66 3.71-60.34 16-75.08 28.4-29-3.38-57-7.51-79.63-11.13 30-55.5 89.35-83.36 153.32-89.26 3.32-.31 6.65-.57 10-.76a309.37 309.37 0 0 1 49.24 1.22c43.13 4.54 74.21 21.3 92.2 43.31 19.15 23.73 23.87 53.42 15.31 80.83ZM738.7 592.5c-15.89 5.24-41.39 14.14-81.9 11-27.54-2.07-73.07-14.3-89.37-47.4-28.36-2.58-56.42-5.63-81.35-8.45 11.75 61.78 55 94.07 101.91 106.66 59.37 15.89 124 5.59 165.37-13.8 7.86-3.84 18.68-11 18.68-26.37.19-13.78-12.04-28.63-33.34-21.64Z" style="fill:#fff"/>
</svg>

<svg width="1024" height="1024" viewBox="0 0 1024 1024" fill="none" xmlns="http://www.w3.org/2000/svg">
<g clip-path="url(#clip0_2_3699)">
<path d="M512 1024C794.77 1024 1024 794.77 1024 512C1024 229.23 794.77 0 512 0C229.23 0 0 229.23 0 512C0 794.77 229.23 1024 512 1024Z" fill="#FF837D"/>
<path d="M819.9 487.55C807.9 526.32 768.56 545 716.35 550.55C642.35 558.55 477.47 535.88 420.02 530.12C428.23 568.54 435.56 607.48 438.88 624.07C443.07 644.85 429.8 657.6 412.34 658.99C399.94 659.99 389.46 652.53 386.34 641.53C385.34 638.21 369.23 588.45 362.94 569.76C352.46 539.03 344.78 522.96 303.39 515.63C280.34 511.44 265.15 511.09 236.68 508.99C216.6 507.59 200.01 489.61 200.01 467.6C200.01 441.76 223.23 414.17 256.94 419.23C314.94 427.79 389.48 442.8 456.18 455.03C471.07 457.74 488.95 460.8 508.45 463.84H508.34L515.61 464.96H515.79L522.96 466.04L523.43 466.11L530.57 467.11L531.17 467.2L538.34 468.2L538.98 468.29L546.27 469.29L546.8 469.36L554.29 470.36H554.64L562.39 471.36L570.39 472.36C618.6 478.22 668.01 481.97 702.73 479.19C728.05 476.92 749.88 473.95 749.88 465.05C749.88 460.51 745.34 454.57 737.88 449.33C724.26 440.6 699.11 432.39 664.54 434.14C661.12 434.33 657.79 434.6 654.54 434.94C618.88 438.65 594.2 450.94 579.46 463.34C550.46 459.96 522.46 455.83 499.83 452.21C529.83 396.71 589.18 368.85 653.15 362.95C656.47 362.64 659.8 362.38 663.15 362.19C679.569 361.287 696.035 361.695 712.39 363.41C755.52 367.95 786.6 384.71 804.59 406.72C823.74 430.45 828.46 460.14 819.9 487.55ZM738.7 592.5C722.81 597.74 697.31 606.64 656.8 603.5C629.26 601.43 583.73 589.2 567.43 556.1C539.07 553.52 511.01 550.47 486.08 547.65C497.83 609.43 541.08 641.72 587.99 654.31C647.36 670.2 711.99 659.9 753.36 640.51C761.22 636.67 772.04 629.51 772.04 614.14C772.23 600.36 760 585.51 738.7 592.5Z" fill="white"/>
</g>
<defs>
<clipPath id="clip0_2_3699">
<rect width="1024" height="1024" fill="white"/>
</clipPath>
</defs>
</svg>
